austria/municipalities/41518.svg

<?xml version="1.0" encoding="UTF-8"?>
<!DOCTYPE svg PUBLIC "-//W3C//DTD SVG 1.1//EN" "http://www.w3.org/Graphics/SVG/1.1/DTD/svg11.dtd">
<svg xmlns="http://www.w3.org/2000/svg" version="1.1" width="227px" height="276px" style="shape-rendering:geometricPrecision; text-rendering:geometricPrecision; image-rendering:optimizeQuality; fill-rule:evenodd; clip-rule:evenodd" xmlns:xlink="http://www.w3.org/1999/xlink">
<g><path style="opacity:1" fill="#f9f9f9" d="M -0.5,-0.5 C 75.1667,-0.5 150.833,-0.5 226.5,-0.5C 226.5,91.5 226.5,183.5 226.5,275.5C 150.833,275.5 75.1667,275.5 -0.5,275.5C -0.5,183.5 -0.5,91.5 -0.5,-0.5 Z"/></g>
<g><path style="opacity:1" fill="#070806" d="M 4.5,4.5 C 76.8333,4.5 149.167,4.5 221.5,4.5C 221.667,61.1676 221.5,117.834 221,174.5C 211.602,229.898 179.102,261.731 123.5,270C 78.791,272.562 44.291,255.062 20,217.5C 12.8176,204.286 7.81756,190.286 5,175.5C 4.50001,118.501 4.33334,61.501 4.5,4.5 Z"/></g>
<g><path style="opacity:1" fill="#017644" d="M 9.5,7.5 C 43.8333,7.5 78.1667,7.5 112.5,7.5C 112.5,93.1667 112.5,178.833 112.5,264.5C 109.167,264.5 105.833,264.5 102.5,264.5C 61.917,258.076 33.417,236.076 17,198.5C 13.7257,189.403 11.3924,180.07 10,170.5C 9.50001,116.168 9.33334,61.8344 9.5,7.5 Z"/></g>
<g><path style="opacity:1" fill="#f7c807" d="M 114.5,8.5 C 148.5,8.5 182.5,8.5 216.5,8.5C 216.667,63.8343 216.5,119.168 216,174.5C 208.517,219.98 182.684,249.147 138.5,262C 130.613,263.927 122.613,264.761 114.5,264.5C 114.5,179.167 114.5,93.8333 114.5,8.5 Z"/></g>
<g><path style="opacity:1" fill="#1e1f17" d="M 204.5,83.5 C 204.429,80.4029 204.262,77.0696 204,73.5C 202.457,71.6217 200.624,70.1217 198.5,69C 190.96,70.1359 183.293,70.6359 175.5,70.5C 175.333,59.495 175.5,48.495 176,37.5C 181.109,29.9807 180.276,23.1474 173.5,17C 163.368,11.9327 155.868,14.4327 151,24.5C 149.815,29.4056 150.815,33.739 154,37.5C 154.5,48.495 154.667,59.495 154.5,70.5C 147.359,70.8917 140.359,70.2251 133.5,68.5C 127.5,68.5 124.5,71.5 124.5,77.5C 126.784,86.3028 132.117,88.6361 140.5,84.5C 141.167,84.5 141.833,84.5 142.5,84.5C 137.75,88.9273 132.417,89.594 126.5,86.5C 122.284,81.7428 121.451,76.4095 124,70.5C 128.774,64.9322 134.274,64.0989 140.5,68C 144.821,68.499 149.154,68.6657 153.5,68.5C 153.666,58.8276 153.5,49.1609 153,39.5C 146.462,30.6281 147.296,22.4615 155.5,15C 173.381,9.21022 181.548,15.7102 180,34.5C 179,36.1667 178,37.8333 177,39.5C 176.5,49.4944 176.334,59.4944 176.5,69.5C 183.129,70.0896 189.463,69.0896 195.5,66.5C 205.706,68.5827 208.706,74.2493 204.5,83.5 Z"/></g>
<g><path style="opacity:1" fill="#027543" d="M 204.5,83.5 C 203.833,84.8333 202.833,85.8333 201.5,86.5C 201.565,86.0618 201.399,85.7284 201,85.5C 196.488,88.3357 192.321,87.8357 188.5,84C 184.179,83.501 179.846,83.3343 175.5,83.5C 174.501,127.997 174.168,172.664 174.5,217.5C 173.237,227.456 170.07,236.79 165,245.5C 164.162,244.001 163.329,243.668 162.5,244.5C 157.122,236.028 154.122,226.695 153.5,216.5C 154.499,172.336 154.832,128.003 154.5,83.5C 149.637,83.1805 144.97,83.5139 140.5,84.5C 132.117,88.6361 126.784,86.3028 124.5,77.5C 124.5,71.5 127.5,68.5 133.5,68.5C 140.359,70.2251 147.359,70.8917 154.5,70.5C 154.667,59.495 154.5,48.495 154,37.5C 150.815,33.739 149.815,29.4056 151,24.5C 155.868,14.4327 163.368,11.9327 173.5,17C 180.276,23.1474 181.109,29.9807 176,37.5C 175.5,48.495 175.333,59.495 175.5,70.5C 183.293,70.6359 190.96,70.1359 198.5,69C 200.624,70.1217 202.457,71.6217 204,73.5C 204.262,77.0696 204.429,80.4029 204.5,83.5 Z"/></g>
<g><path style="opacity:1" fill="#01180e" d="M 9.5,7.5 C 43.996,6.50164 78.6627,6.1683 113.5,6.5C 113.5,92.8333 113.5,179.167 113.5,265.5C 109.629,265.815 105.962,265.482 102.5,264.5C 105.833,264.5 109.167,264.5 112.5,264.5C 112.5,178.833 112.5,93.1667 112.5,7.5C 78.1667,7.5 43.8333,7.5 9.5,7.5 Z"/></g>
<g><path style="opacity:1" fill="#040d06" d="M 78.5,178.5 C 77.8333,178.5 77.1667,178.5 76.5,178.5C 73.9831,177.027 71.1498,176.36 68,176.5C 65.9674,176.506 64.134,176.839 62.5,177.5C 60.6214,177.607 60.2881,177.107 61.5,176C 60.9558,175.283 60.2891,174.783 59.5,174.5C 53.9003,169.301 54.4003,164.634 61,160.5C 61.6667,133.833 61.6667,107.167 61,80.5C 58.2809,79.5562 55.4475,79.2229 52.5,79.5C 52.5,73.1667 52.5,66.8333 52.5,60.5C 49.5,60.5 46.5,60.5 43.5,60.5C 43.5,66.8333 43.5,73.1667 43.5,79.5C 35.5,79.5 27.5,79.5 19.5,79.5C 19.5,75.1667 19.5,70.8333 19.5,66.5C 24.8333,66.5 30.1667,66.5 35.5,66.5C 35.5,64.8333 35.5,63.1667 35.5,61.5C 30.1667,61.5 24.8333,61.5 19.5,61.5C 19.5,58.8333 19.5,56.1667 19.5,53.5C 24.8333,53.5 30.1667,53.5 35.5,53.5C 35.5,51.5 35.5,49.5 35.5,47.5C 30.1667,47.5 24.8333,47.5 19.5,47.5C 19.5,45.1667 19.5,42.8333 19.5,40.5C 24.8333,40.5 30.1667,40.5 35.5,40.5C 35.5,37.8333 35.5,35.1667 35.5,32.5C 30.1667,32.5 24.8333,32.5 19.5,32.5C 19.5,29.1667 19.5,25.8333 19.5,22.5C 27.5,22.5 35.5,22.5 43.5,22.5C 43.3337,29.8409 43.5003,37.1742 44,44.5C 46.7191,45.4438 49.5525,45.7771 52.5,45.5C 52.5,37.8333 52.5,30.1667 52.5,22.5C 55.5,22.5 58.5,22.5 61.5,22.5C 64.3829,14.6553 68.8829,13.6553 75,19.5C 75.3333,20.8333 75.6667,22.1667 76,23.5C 75.461,69.1594 75.461,114.826 76,160.5C 83.1539,165.321 83.3206,170.488 76.5,176C 77.3805,176.708 78.0472,177.542 78.5,178.5 Z"/></g>
<g><path style="opacity:1" fill="#a58a1b" d="M 21.5,42.5 C 21.5,43.5 21.5,44.5 21.5,45.5C 27.0262,45.1786 32.3595,45.5119 37.5,46.5C 37.1667,46.5 36.8333,46.5 36.5,46.5C 31.1667,46.5 25.8333,46.5 20.5,46.5C 20.2322,44.901 20.5655,43.5676 21.5,42.5 Z"/></g>
<g><path style="opacity:1" fill="#917811" d="M 42.5,77.5 C 42.1667,77.5 41.8333,77.5 41.5,77.5C 41.5,70.8333 41.5,64.1667 41.5,57.5C 45.8333,57.5 50.1667,57.5 54.5,57.5C 54.5,64.1667 54.5,70.8333 54.5,77.5C 56.5,77.5 58.5,77.5 60.5,77.5C 60.5,59.8333 60.5,42.1667 60.5,24.5C 58.5,24.5 56.5,24.5 54.5,24.5C 54.825,32.0191 54.4916,39.3524 53.5,46.5C 53.5,38.8333 53.5,31.1667 53.5,23.5C 56.1667,23.5 58.8333,23.5 61.5,23.5C 61.5,41.8333 61.5,60.1667 61.5,78.5C 58.8333,78.5 56.1667,78.5 53.5,78.5C 53.5,71.8333 53.5,65.1667 53.5,58.5C 49.8333,58.5 46.1667,58.5 42.5,58.5C 42.5,64.8333 42.5,71.1667 42.5,77.5 Z"/></g>
<g><path style="opacity:1" fill="#f7c705" d="M 42.5,46.5 C 46.1667,46.5 49.8333,46.5 53.5,46.5C 54.4916,39.3524 54.825,32.0191 54.5,24.5C 56.5,24.5 58.5,24.5 60.5,24.5C 60.5,42.1667 60.5,59.8333 60.5,77.5C 58.5,77.5 56.5,77.5 54.5,77.5C 54.5,70.8333 54.5,64.1667 54.5,57.5C 50.1667,57.5 45.8333,57.5 41.5,57.5C 41.5,64.1667 41.5,70.8333 41.5,77.5C 34.8333,77.5 28.1667,77.5 21.5,77.5C 21.5,74.5 21.5,71.5 21.5,68.5C 26.8333,68.5 32.1667,68.5 37.5,68.5C 37.5,65.5 37.5,62.5 37.5,59.5C 32.1667,59.5 26.8333,59.5 21.5,59.5C 21.5,58.1667 21.5,56.8333 21.5,55.5C 26.8333,55.5 32.1667,55.5 37.5,55.5C 37.5,52.5 37.5,49.5 37.5,46.5C 32.3595,45.5119 27.0262,45.1786 21.5,45.5C 21.5,44.5 21.5,43.5 21.5,42.5C 26.8333,42.5 32.1667,42.5 37.5,42.5C 37.5,38.8333 37.5,35.1667 37.5,31.5C 32.1667,31.5 26.8333,31.5 21.5,31.5C 21.5,29.1667 21.5,26.8333 21.5,24.5C 28.1667,24.5 34.8333,24.5 41.5,24.5C 41.175,32.0191 41.5084,39.3524 42.5,46.5 Z"/></g>
<g><path style="opacity:1" fill="#786209" d="M 42.5,46.5 C 41.5084,39.3524 41.175,32.0191 41.5,24.5C 34.8333,24.5 28.1667,24.5 21.5,24.5C 21.5,26.8333 21.5,29.1667 21.5,31.5C 20.5269,29.0521 20.1936,26.3854 20.5,23.5C 27.8333,23.5 35.1667,23.5 42.5,23.5C 42.5,31.1667 42.5,38.8333 42.5,46.5 Z"/></g>
<g><path style="opacity:1" fill="#f2c40f" d="M 73.5,25.5 C 72.8383,71.8454 73.505,117.845 75.5,163.5C 79.4734,166.54 79.4734,169.706 75.5,173C 70.8333,173.667 66.1667,173.667 61.5,173C 58.6212,171.334 57.7879,168.834 59,165.5C 59.6891,164.643 60.5224,163.977 61.5,163.5C 62.3333,116.17 62.8333,68.8369 63,21.5C 65.467,17.0063 68.8003,16.3396 73,19.5C 73.4955,21.4727 73.6621,23.4727 73.5,25.5 Z"/></g>
<g><path style="opacity:1" fill="#5d4b01" d="M 36.5,46.5 C 36.8333,46.5 37.1667,46.5 37.5,46.5C 37.5,49.5 37.5,52.5 37.5,55.5C 32.1667,55.5 26.8333,55.5 21.5,55.5C 21.5,56.8333 21.5,58.1667 21.5,59.5C 20.5489,58.0813 20.2155,56.4147 20.5,54.5C 25.8333,54.5 31.1667,54.5 36.5,54.5C 36.5,51.8333 36.5,49.1667 36.5,46.5 Z"/></g>
<g><path style="opacity:1" fill="#927f33" d="M 73.5,25.5 C 74.1715,71.4023 74.8382,117.402 75.5,163.5C 73.505,117.845 72.8383,71.8454 73.5,25.5 Z"/></g>
<g><path style="opacity:1" fill="#614e02" d="M 21.5,68.5 C 21.5,71.5 21.5,74.5 21.5,77.5C 28.1667,77.5 34.8333,77.5 41.5,77.5C 41.8333,77.5 42.1667,77.5 42.5,77.5C 35.3524,78.4916 28.0191,78.825 20.5,78.5C 20.1872,74.9581 20.5206,71.6248 21.5,68.5 Z"/></g>
<g><path style="opacity:1" fill="#000000" d="M 140.5,84.5 C 144.97,83.5139 149.637,83.1805 154.5,83.5C 154.832,128.003 154.499,172.336 153.5,216.5C 153.5,172.5 153.5,128.5 153.5,84.5C 149.833,84.5 146.167,84.5 142.5,84.5C 141.833,84.5 141.167,84.5 140.5,84.5 Z"/></g>
<g><path style="opacity:1" fill="#13130d" d="M 175.5,83.5 C 179.846,83.3343 184.179,83.501 188.5,84C 192.321,87.8357 196.488,88.3357 201,85.5C 201.399,85.7284 201.565,86.0618 201.5,86.5C 197.15,89.255 192.817,89.0883 188.5,86C 184.514,85.5012 180.514,85.3345 176.5,85.5C 176.5,128.5 176.5,171.5 176.5,214.5C 175.501,171.003 175.168,127.337 175.5,83.5 Z"/></g>
<g><path style="opacity:1" fill="#105336" d="M 175.5,83.5 C 175.168,127.337 175.501,171.003 176.5,214.5C 176.768,216.099 176.434,217.432 175.5,218.5C 175.5,217.833 175.167,217.5 174.5,217.5C 174.168,172.664 174.501,127.997 175.5,83.5 Z"/></g>
<g><path style="opacity:1" fill="#303312" d="M 59.5,174.5 C 60.2891,174.783 60.9558,175.283 61.5,176C 60.2881,177.107 60.6214,177.607 62.5,177.5C 56.6371,180.868 52.3038,185.701 49.5,192C 38.7758,196.3 33.7758,204.134 34.5,215.5C 31.5017,202.848 36.335,194.514 49,190.5C 51.1458,185.187 54.4791,180.854 59,177.5C 59.4828,176.552 59.6495,175.552 59.5,174.5 Z"/></g>
<g><path style="opacity:1" fill="#2d3110" d="M 76.5,178.5 C 77.1667,178.5 77.8333,178.5 78.5,178.5C 83.31,181.081 86.4767,185.081 88,190.5C 90.7542,192.127 93.5875,193.627 96.5,195C 98.4641,196.451 99.7974,198.284 100.5,200.5C 96.9166,197.433 92.9166,194.933 88.5,193C 85.9627,190.094 83.796,186.927 82,183.5C 80.2703,181.598 78.437,179.931 76.5,178.5 Z"/></g>
<g><path style="opacity:1" fill="#f0c20a" d="M 76.5,178.5 C 78.437,179.931 80.2703,181.598 82,183.5C 83.796,186.927 85.9627,190.094 88.5,193C 92.9166,194.933 96.9166,197.433 100.5,200.5C 100.229,202.38 100.896,203.713 102.5,204.5C 103.383,216.467 98.0493,224.301 86.5,228C 81.9897,239.081 73.9897,243.581 62.5,241.5C 59.6141,240.121 57.1141,238.121 55,235.5C 53.1549,229.153 48.9883,225.486 42.5,224.5C 39.7313,221.409 37.0646,218.409 34.5,215.5C 33.7758,204.134 38.7758,196.3 49.5,192C 52.3038,185.701 56.6371,180.868 62.5,177.5C 64.134,176.839 65.9674,176.506 68,176.5C 71.1498,176.36 73.9831,177.027 76.5,178.5 Z"/></g>
<g><path style="opacity:1" fill="#192713" d="M 88.5,200.5 C 88.5299,201.497 88.0299,202.164 87,202.5C 84.4162,201.896 81.9162,201.063 79.5,200C 77.6275,196.373 76.1275,192.54 75,188.5C 69.6701,184.162 65.0034,184.829 61,190.5C 60.9016,193.522 60.0682,196.189 58.5,198.5C 57.7039,187.46 62.7039,182.96 73.5,185C 77.3441,188.696 79.6774,193.196 80.5,198.5C 83.0205,199.785 85.6872,200.452 88.5,200.5 Z"/></g>
<g><path style="opacity:1" fill="#037643" d="M 88.5,200.5 C 89.1667,200.833 89.8333,201.167 90.5,201.5C 91.8557,204.87 93.189,208.203 94.5,211.5C 94.3775,214.292 93.0442,216.292 90.5,217.5C 81.2495,216.255 76.4162,220.255 76,229.5C 71.3153,234.608 66.482,234.774 61.5,230C 63.6136,225.489 62.6136,223.322 58.5,223.5C 58.5,223.167 58.5,222.833 58.5,222.5C 59.65,220.733 58.9833,219.567 56.5,219C 53.854,218.503 51.1873,218.336 48.5,218.5C 47.8333,218.5 47.5,218.167 47.5,217.5C 43.3317,213.494 42.4983,208.828 45,203.5C 48.8417,202.137 52.675,201.137 56.5,200.5C 57.5,200.167 58.1667,199.5 58.5,198.5C 60.0682,196.189 60.9016,193.522 61,190.5C 65.0034,184.829 69.6701,184.162 75,188.5C 76.1275,192.54 77.6275,196.373 79.5,200C 81.9162,201.063 84.4162,201.896 87,202.5C 88.0299,202.164 88.5299,201.497 88.5,200.5 Z"/></g>
<g><path style="opacity:1" fill="#293214" d="M 90.5,201.5 C 93.917,203.891 95.2503,207.225 94.5,211.5C 93.189,208.203 91.8557,204.87 90.5,201.5 Z"/></g>
<g><path style="opacity:1" fill="#283616" d="M 56.5,200.5 C 52.675,201.137 48.8417,202.137 45,203.5C 42.4983,208.828 43.3317,213.494 47.5,217.5C 42.7416,215.434 40.9082,211.768 42,206.5C 42.6853,203.943 44.1853,202.109 46.5,201C 49.8168,200.502 53.1501,200.335 56.5,200.5 Z"/></g>
<g><path style="opacity:1" fill="#4e501a" d="M 48.5,218.5 C 51.1873,218.336 53.854,218.503 56.5,219C 58.9833,219.567 59.65,220.733 58.5,222.5C 55.5281,220.178 52.1948,218.845 48.5,218.5 Z"/></g>
<g><path style="opacity:1" fill="#354a1f" d="M 90.5,217.5 C 87.3927,218.981 84.0594,220.148 80.5,221C 79.611,226.109 77.2777,230.442 73.5,234C 64.3236,236.674 59.3236,233.174 58.5,223.5C 62.6136,223.322 63.6136,225.489 61.5,230C 66.482,234.774 71.3153,234.608 76,229.5C 76.4162,220.255 81.2495,216.255 90.5,217.5 Z"/></g>
<g><path style="opacity:1" fill="#232c1e" d="M 174.5,217.5 C 175.167,217.5 175.5,217.833 175.5,218.5C 174.649,228.888 171.315,238.388 165.5,247C 163.846,247.196 162.846,246.363 162.5,244.5C 163.329,243.668 164.162,244.001 165,245.5C 170.07,236.79 173.237,227.456 174.5,217.5 Z"/></g>
<g><path style="opacity:1" fill="#142212" d="M 102.5,204.5 C 105.071,216.503 100.405,224.669 88.5,229C 85.8333,232.667 83.1667,236.333 80.5,240C 73.9391,243.937 67.2725,244.437 60.5,241.5C 61.1667,241.5 61.8333,241.5 62.5,241.5C 73.9897,243.581 81.9897,239.081 86.5,228C 98.0493,224.301 103.383,216.467 102.5,204.5 Z"/></g>
<g><path style="opacity:1" fill="#333612" d="M 34.5,215.5 C 37.0646,218.409 39.7313,221.409 42.5,224.5C 48.9883,225.486 53.1549,229.153 55,235.5C 57.1141,238.121 59.6141,240.121 62.5,241.5C 61.8333,241.5 61.1667,241.5 60.5,241.5C 56.1826,239.347 53.0159,236.014 51,231.5C 50.6667,231.833 50.3333,232.167 50,232.5C 50.1484,231.175 49.9817,230.008 49.5,229C 41.7279,227.387 36.7279,222.887 34.5,215.5 Z"/></g>
</svg>

<svg xmlns="http://www.w3.org/2000/svg" width="227" height="276" style="shape-rendering:geometricPrecision;text-rendering:geometricPrecision;image-rendering:optimizeQuality;fill-rule:evenodd;clip-rule:evenodd"><path style="opacity:1" fill="#f9f9f9" d="M-.5-.5h227v276H-.5V-.5z"/><path style="opacity:1" fill="#070806" d="M4.5 4.5h217c.167 56.668 0 113.334-.5 170-9.398 55.398-41.898 87.231-97.5 95.5-44.709 2.562-79.209-14.938-103.5-52.5a143.78 143.78 0 0 1-15-42c-.5-56.999-.667-113.999-.5-171z"/><path style="opacity:1" fill="#017644" d="M9.5 7.5h103v257h-10c-40.583-6.424-69.083-28.424-85.5-66a143.46 143.46 0 0 1-7-28c-.5-54.332-.667-108.666-.5-163z"/><path style="opacity:1" fill="#f7c807" d="M114.5 8.5h102c.167 55.334 0 110.668-.5 166-7.483 45.48-33.316 74.647-77.5 87.5a88.647 88.647 0 0 1-24 2.5V8.5z"/><path style="opacity:1" fill="#1e1f17" d="M204.5 83.5c-.071-3.097-.238-6.43-.5-10a17.833 17.833 0 0 0-5.5-4.5 137.984 137.984 0 0 1-23 1.5c-.167-11.005 0-22.005.5-33 5.109-7.52 4.276-14.353-2.5-20.5-10.132-5.067-17.632-2.567-22.5 7.5-1.185 4.906-.185 9.239 3 13 .5 10.995.667 21.995.5 33-7.141.392-14.141-.275-21-2-6 0-9 3-9 9 2.284 8.803 7.617 11.136 16 7h2c-4.75 4.427-10.083 5.094-16 2-4.216-4.757-5.049-10.09-2.5-16 4.774-5.568 10.274-6.401 16.5-2.5a84.94 84.94 0 0 0 13 .5c.166-9.672 0-19.34-.5-29-6.538-8.872-5.704-17.038 2.5-24.5 17.881-5.79 26.048.71 24.5 19.5l-3 5c-.5 9.994-.666 19.994-.5 30 6.629.59 12.963-.41 19-3 10.206 2.083 13.206 7.75 9 17z"/><path style="opacity:1" fill="#027543" d="M204.5 83.5a6.544 6.544 0 0 1-3 3c.065-.438-.101-.772-.5-1-4.512 2.836-8.679 2.336-12.5-1.5a84.94 84.94 0 0 0-13-.5 4488.948 4488.948 0 0 0-1 134c-1.263 9.956-4.43 19.29-9.5 28-.838-1.499-1.671-1.832-2.5-1-5.378-8.472-8.378-17.805-9-28a4422.145 4422.145 0 0 0 1-133c-4.863-.32-9.53.014-14 1-8.383 4.136-13.716 1.803-16-7 0-6 3-9 9-9 6.859 1.725 13.859 2.392 21 2 .167-11.005 0-22.005-.5-33-3.185-3.761-4.185-8.094-3-13 4.868-10.067 12.368-12.567 22.5-7.5 6.776 6.147 7.609 12.98 2.5 20.5a544.417 544.417 0 0 0-.5 33c7.793.136 15.46-.364 23-1.5a17.833 17.833 0 0 1 5.5 4.5c.262 3.57.429 6.903.5 10z"/><path style="opacity:1" fill="#01180e" d="M9.5 7.5a2704.593 2704.593 0 0 1 104-1v259c-3.871.315-7.538-.018-11-1h10V7.5H9.5z"/><path style="opacity:1" fill="#040d06" d="M78.5 178.5h-2c-2.517-1.473-5.35-2.14-8.5-2-2.033.006-3.866.339-5.5 1-1.879.107-2.212-.393-1-1.5-.544-.717-1.21-1.217-2-1.5-5.6-5.199-5.1-9.866 1.5-14a1600.17 1600.17 0 0 0 0-80c-2.72-.944-5.553-1.277-8.5-1v-19h-9v19h-24v-13h16v-5h-16v-8h16v-6h-16v-7h16v-8h-16v-10h24c-.166 7.34 0 14.674.5 22 2.72.944 5.553 1.277 8.5 1v-23h9c2.883-7.845 7.383-8.845 13.5-3l1 4a5803.85 5803.85 0 0 0 0 137c7.154 4.821 7.32 9.988.5 15.5.88.708 1.547 1.542 2 2.5z"/><path style="opacity:1" fill="#a58a1b" d="M21.5 42.5v3c5.526-.321 10.86.012 16 1h-17c-.268-1.599.066-2.932 1-4z"/><path style="opacity:1" fill="#917811" d="M42.5 77.5h-1v-20h13v20h6v-53h-6c.325 7.52-.008 14.852-1 22v-23h8v55h-8v-20h-11v19z"/><path style="opacity:1" fill="#f7c705" d="M42.5 46.5h11c.992-7.148 1.325-14.48 1-22h6v53h-6v-20h-13v20h-20v-9h16v-9h-16v-4h16v-9c-5.14-.988-10.474-1.321-16-1v-3h16v-11h-16v-7h20c-.325 7.52.008 14.852 1 22z"/><path style="opacity:1" fill="#786209" d="M42.5 46.5c-.992-7.148-1.325-14.48-1-22h-20v7c-.973-2.448-1.306-5.115-1-8h22v23z"/><path style="opacity:1" fill="#f2c40f" d="M73.5 25.5c-.662 46.345.005 92.345 2 138 3.973 3.04 3.973 6.206 0 9.5a49.226 49.226 0 0 1-14 0c-2.879-1.666-3.712-4.166-2.5-7.5a7.253 7.253 0 0 1 2.5-2c.833-47.33 1.333-94.663 1.5-142 2.467-4.494 5.8-5.16 10-2 .496 1.973.662 3.973.5 6z"/><path style="opacity:1" fill="#5d4b01" d="M36.5 46.5h1v9h-16v4c-.951-1.419-1.285-3.085-1-5h16v-8z"/><path style="opacity:1" fill="#927f33" d="M73.5 25.5c.671 45.902 1.338 91.902 2 138-1.995-45.655-2.662-91.655-2-138z"/><path style="opacity:1" fill="#614e02" d="M21.5 68.5v9h21c-7.148.992-14.48 1.325-22 1-.313-3.542.02-6.875 1-10z"/><path style="opacity:1" d="M140.5 84.5c4.47-.986 9.137-1.32 14-1 .332 44.503-.001 88.836-1 133v-132h-13z"/><path style="opacity:1" fill="#13130d" d="M175.5 83.5a84.94 84.94 0 0 1 13 .5c3.821 3.836 7.988 4.336 12.5 1.5.399.228.565.562.5 1-4.35 2.755-8.683 2.588-13-.5a72.442 72.442 0 0 0-12-.5v129a4290.017 4290.017 0 0 1-1-131z"/><path style="opacity:1" fill="#105336" d="M175.5 83.5c-.332 43.837.001 87.503 1 131 .268 1.599-.066 2.932-1 4 0-.667-.333-1-1-1-.332-44.836.001-89.503 1-134z"/><path style="opacity:1" fill="#303312" d="M59.5 174.5c.79.283 1.456.783 2 1.5-1.212 1.107-.879 1.607 1 1.5-5.863 3.368-10.196 8.201-13 14.5-10.724 4.3-15.724 12.134-15 23.5-2.998-12.652 1.835-20.986 14.5-25 2.146-5.313 5.48-9.646 10-13 .483-.948.65-1.948.5-3z"/><path style="opacity:1" fill="#2d3110" d="M76.5 178.5h2c4.81 2.581 7.977 6.581 9.5 12a103.333 103.333 0 0 0 8.5 4.5c1.964 1.451 3.297 3.284 4 5.5-3.583-3.067-7.583-5.567-12-7.5a48.919 48.919 0 0 1-6.5-9.5 37.824 37.824 0 0 0-5.5-5z"/><path style="opacity:1" fill="#f0c20a" d="M76.5 178.5a37.824 37.824 0 0 1 5.5 5 48.919 48.919 0 0 0 6.5 9.5c4.417 1.933 8.417 4.433 12 7.5-.271 1.88.396 3.213 2 4 .883 11.967-4.45 19.801-16 23.5-4.51 11.081-12.51 15.581-24 13.5-2.886-1.379-5.386-3.379-7.5-6-1.845-6.347-6.012-10.014-12.5-11a1527.556 1527.556 0 0 1-8-9c-.724-11.366 4.276-19.2 15-23.5 2.804-6.299 7.137-11.132 13-14.5 1.634-.661 3.467-.994 5.5-1 3.15-.14 5.983.527 8.5 2z"/><path style="opacity:1" fill="#192713" d="M88.5 200.5c.03.997-.47 1.664-1.5 2a42.744 42.744 0 0 1-7.5-2.5 60.365 60.365 0 0 1-4.5-11.5c-5.33-4.338-9.997-3.671-14 2-.098 3.022-.932 5.689-2.5 8-.796-11.04 4.204-15.54 15-13.5 3.844 3.696 6.177 8.196 7 13.5a18.073 18.073 0 0 0 8 2z"/><path style="opacity:1" fill="#037643" d="m88.5 200.5 2 1c1.356 3.37 2.689 6.703 4 10-.123 2.792-1.456 4.792-4 6-9.25-1.245-14.084 2.755-14.5 12-4.685 5.108-9.518 5.274-14.5.5 2.114-4.511 1.114-6.678-3-6.5v-1c1.15-1.767.483-2.933-2-3.5a32.462 32.462 0 0 0-8-.5c-.667 0-1-.333-1-1-4.168-4.006-5.002-8.672-2.5-14 3.842-1.363 7.675-2.363 11.5-3 1-.333 1.667-1 2-2 1.568-2.311 2.402-4.978 2.5-8 4.003-5.671 8.67-6.338 14-2a60.365 60.365 0 0 0 4.5 11.5 42.744 42.744 0 0 0 7.5 2.5c1.03-.336 1.53-1.003 1.5-2z"/><path style="opacity:1" fill="#293214" d="M90.5 201.5c3.417 2.391 4.75 5.725 4 10-1.311-3.297-2.644-6.63-4-10z"/><path style="opacity:1" fill="#283616" d="M56.5 200.5c-3.825.637-7.658 1.637-11.5 3-2.502 5.328-1.668 9.994 2.5 14-4.758-2.066-6.592-5.732-5.5-11 .685-2.557 2.185-4.391 4.5-5.5a50.464 50.464 0 0 1 10-.5z"/><path style="opacity:1" fill="#4e501a" d="M48.5 218.5a32.462 32.462 0 0 1 8 .5c2.483.567 3.15 1.733 2 3.5-2.972-2.322-6.305-3.655-10-4z"/><path style="opacity:1" fill="#354a1f" d="M90.5 217.5c-3.107 1.481-6.44 2.648-10 3.5-.889 5.109-3.222 9.442-7 13-9.176 2.674-14.176-.826-15-10.5 4.114-.178 5.114 1.989 3 6.5 4.982 4.774 9.815 4.608 14.5-.5.416-9.245 5.25-13.245 14.5-12z"/><path style="opacity:1" fill="#232c1e" d="M174.5 217.5c.667 0 1 .333 1 1-.851 10.388-4.185 19.888-10 28.5-1.654.196-2.654-.637-3-2.5.829-.832 1.662-.499 2.5 1 5.07-8.71 8.237-18.044 9.5-28z"/><path style="opacity:1" fill="#142212" d="M102.5 204.5c2.571 12.003-2.095 20.169-14 24.5l-8 11c-6.56 3.937-13.228 4.437-20 1.5h2c11.49 2.081 19.49-2.419 24-13.5 11.55-3.699 16.883-11.533 16-23.5z"/><path style="opacity:1" fill="#333612" d="M34.5 215.5c2.565 2.909 5.231 5.909 8 9 6.488.986 10.655 4.653 12.5 11 2.114 2.621 4.614 4.621 7.5 6h-2c-4.317-2.153-7.484-5.486-9.5-10l-1 1c.148-1.325-.018-2.492-.5-3.5-7.772-1.613-12.772-6.113-15-13.5z"/></svg>
